images/about5.svg

<svg width="40" height="40" viewBox="0 0 40 40" fill="none" xmlns="http://www.w3.org/2000/svg">
<circle cx="20" cy="20" r="20" fill="#F0F5FF"/>
<path d="M19.0002 14H22.0002L25.2902 10.7C25.3832 10.6062 25.4938 10.5319 25.6156 10.4811C25.7375 10.4303 25.8682 10.4042 26.0002 10.4042C26.1322 10.4042 26.2629 10.4303 26.3848 10.4811C26.5067 10.5319 26.6173 10.6062 26.7102 10.7L29.2902 13.29C29.4765 13.4773 29.581 13.7308 29.581 13.995C29.581 14.2592 29.4765 14.5126 29.2902 14.7L27.0002 17H19.0002V19C19.0002 19.2652 18.8949 19.5195 18.7073 19.7071C18.5198 19.8946 18.2654 20 18.0002 20C17.735 20 17.4807 19.8946 17.2931 19.7071C17.1056 19.5195 17.0002 19.2652 17.0002 19V16C17.0002 15.4695 17.2109 14.9608 17.586 14.5858C17.9611 14.2107 18.4698 14 19.0002 14ZM13.0002 19V23L10.7102 25.29C10.524 25.4773 10.4194 25.7308 10.4194 25.995C10.4194 26.2592 10.524 26.5126 10.7102 26.7L13.2902 29.29C13.3832 29.3837 13.4938 29.4581 13.6156 29.5089C13.7375 29.5596 13.8682 29.5858 14.0002 29.5858C14.1322 29.5858 14.2629 29.5596 14.3848 29.5089C14.5067 29.4581 14.6173 29.3837 14.7102 29.29L19.0002 25H23.0002C23.2654 25 23.5198 24.8946 23.7073 24.7071C23.8949 24.5195 24.0002 24.2652 24.0002 24V23H25.0002C25.2654 23 25.5198 22.8946 25.7073 22.7071C25.8949 22.5195 26.0002 22.2652 26.0002 22V21H27.0002C27.2654 21 27.5198 20.8946 27.7073 20.7071C27.8949 20.5195 28.0002 20.2652 28.0002 20V19H21.0002V20C21.0002 20.5304 20.7895 21.0391 20.4144 21.4142C20.0394 21.7893 19.5307 22 19.0002 22H17.0002C16.4698 22 15.9611 21.7893 15.586 21.4142C15.2109 21.0391 15.0002 20.5304 15.0002 20V17L13.0002 19Z" fill="#BDD0EA"/>
</svg>

<svg width="40" height="40" fill="none" xmlns="http://www.w3.org/2000/svg"><circle cx="20" cy="20" r="20" fill="#F0F5FF"/><path d="M19 14h3l3.29-3.3a1 1 0 011.42 0l2.58 2.59a1 1 0 010 1.41L27 17h-8v2a1 1 0 11-2 0v-3a2 2 0 012-2zm-6 5v4l-2.29 2.29a1 1 0 000 1.41l2.58 2.59a1.002 1.002 0 001.42 0L19 25h4a1 1 0 001-1v-1h1a1 1 0 001-1v-1h1a1 1 0 001-1v-1h-7v1a2 2 0 01-2 2h-2a2 2 0 01-2-2v-3l-2 2z" fill="#BDD0EA"/></svg>
